X:1
L:1/8
Q:1/8=180
M:4/4
K:G
 A | BGGF GEDG | EDEG A2 GE | DEGA BABd | ed^cd Bdgd | BGGF GEDG | EDEG A2 GE | DEGA BABd | 
 egdc BGG :| B | dggf gedg | eaag a2 ga | bg g2 agef | gedc BGGB | dggf gedg | eaag a2 ga | 
 bg g2 agef | gedc BGG :|""^last time"" gedc BGAF | G8 |]
